; generated by PrusaSlicer 2.9.4 on 2026-04-28 at 00:12:53 UTC


;
;
; 

; external perimeters extrusion width = 0.45mm
; perimeters extrusion width = 0.45mm
; infill extrusion width = 0.45mm
; solid infill extrusion width = 0.45mm
; top infill extrusion width = 0.40mm
; first layer extrusion width = 0.42mm

M73 P0 R147
M73 Q0 S153
M201 X1000 Y1000 Z200 E5000 ; sets maximum accelerations, mm/sec^2
M203 X200 Y200 Z12 E120 ; sets maximum feedrates, mm / sec
M204 S1250 T1250 ; sets acceleration (S) and retract acceleration (R), mm/sec^2
M205 X8.00 Y8.00 Z0.40 E4.50 ; sets the jerk limits, mm/sec
M205 S0 T0 ; sets the minimum extruding and travel feed rate, mm/sec

; printing object Steovetop_Monitor_Bracket_V2.stl id:0 copy 0
; stop printing object Steovetop_Monitor_Bracket_V2.stl id:0 copy 0

;TYPE:Custom
M862.3 P "MK3S" ; printer model check
M862.1 P0.4 ; nozzle diameter check
M115 U3.14.1 ; tell printer latest fw version
G90 ; use absolute coordinates
M83 ; extruder relative mode
M104 S215 ; set extruder temp
M140 S60 ; set bed temp
M190 S60 ; wait for bed temp
M109 S215 ; wait for extruder temp
G28 W ; home all without mesh bed level
G80 X80.1229 Y74.1978 W89.7542 H62.7542 ; mesh bed levelling

G1 Z0.2 F720
G1 Y-3 F1000 ; go outside print area
G92 E0
G1 X60 E9 F1000 ; intro line
G1 X100 E12.5 F1000 ; intro line

G92 E0
M221 S95

; Don't change E values below. Excessive value can damage the printer.

M907 E538 ; set extruder motor current
G21 ; set units to millimeters
G90 ; use absolute coordinates
M83 ; use relative distances for extrusion

M900 K0.05 ; Filament gcode LA 1.5
M900 K30 ; Filament gcode LA 1.0




M107
;LAYER_CHANGE
;Z:0.2
;HEIGHT:0.2
G1 E-.8 F2100
G1 Z.6 F720
G1 X80.702 Y75.327 F10800
G1 Z.2 F720
G1 E.8 F2100
M204 S800
;TYPE:Skirt/Brim
;WIDTH:0.42
G1 F1200
G1 X81.735 Y74.524 E.04102
G1 X82.5 Y74.386 E.02437
G1 X167.5 Y74.386 E2.66512
G1 X168.748 Y74.777 E.04101
G1 X169.551 Y75.81 E.04102
G1 X169.689 Y76.575 E.02437
G1 X169.689 Y134.575 E1.81855
G1 X169.298 Y135.823 E.04101
M73 Q0 S152
G1 X168.265 Y136.625 E.041
G1 X167.5 Y136.763 E.02437
G1 X82.5 Y136.763 E2.66512
G1 X81.252 Y136.373 E.041
G1 X80.449 Y135.34 E.04102
G1 X80.311 Y134.575 E.02437
G1 X80.311 Y76.575 E1.81855
G1 X80.684 Y75.384 E.03913
M204 S1000
;WIPE_START
G1 F8640
G1 X80.702 Y75.327 E-.0138
G1 X81.735 Y74.524 E-.30211
G1 X82.5 Y74.386 E-.17949
G1 X83.819 Y74.386 E-.3046
;WIPE_END
G1 Z.6 F720
; printing object Steovetop_Monitor_Bracket_V2.stl id:0 copy 0
G1 X124.41 Y128.923 F10800
G1 Z.2 F720
G1 E.8 F2100
M204 S800
;TYPE:Perimeter
;WIDTH:0.419999
G1 F1200
G1 X123.922 Y128.739 E.01635
G1 X123.437 Y128.391 E.01872
G1 X123.059 Y127.93 E.01869
G1 X122.826 Y127.418 E.01764
G1 X122.717 Y126.808 E.01943
G1 X122.775 Y126.204 E.01903
G1 X122.972 Y125.677 E.01764
G1 X123.326 Y125.169 E.01941
G1 X123.794 Y124.782 E.01904
G1 X124.338 Y124.536 E.01872
G1 X124.892 Y124.444 E.01761
G1 X125.509 Y124.497 E.01942
G1 X126.078 Y124.709 E.01904
G1 X126.563 Y125.056 E.0187
G1 X126.941 Y125.518 E.01872
G1 X127.187 Y126.061 E.01869
G1 X127.284 Y126.65 E.01872
G1 X127.225 Y127.243 E.01868
G1 X127.015 Y127.802 E.01872
G1 X126.667 Y128.287 E.01872
G1 X126.206 Y128.665 E.01869
G1 X125.663 Y128.911 E.01869
G1 X125.074 Y129.008 E.01872
G1 X124.48 Y128.949 E.01872
G1 X124.467 Y128.944 E.00044
M204 S1000
G1 X124.507 Y128.566 F10800
M204 S800
;TYPE:External perimeter
G1 F1200
G1 X124.482 Y128.562 E.00079
G1 X124.024 Y128.366 E.01562
G1 X123.632 Y128.057 E.01565
G1 X123.333 Y127.657 E.01566
G1 X123.162 Y127.229 E.01445
G1 X123.09 Y126.752 E.01513
G1 X123.148 Y126.253 E.01575
G1 X123.338 Y125.788 E.01575
G1 X123.636 Y125.384 E.01574
G1 X124.032 Y125.075 E.01575
G1 X124.493 Y124.88 E.01569
G1 X124.987 Y124.817 E.01561
G1 X125.485 Y124.874 E.01572
G1 X125.949 Y125.064 E.01572
G1 X126.351 Y125.371 E.01586
G1 X126.659 Y125.773 E.01588
G1 X126.849 Y126.239 E.01578
G1 X126.91 Y126.748 E.01607
G1 X126.839 Y127.242 E.01565
G1 X126.642 Y127.7 E.01563
G1 X126.333 Y128.092 E.01565
G1 X125.934 Y128.39 E.01561
G1 X125.471 Y128.575 E.01563
G1 X124.975 Y128.634 E.01566
G1 X124.566 Y128.575 E.01296
M204 S1000
;WIPE_START
G1 F8640
G1 X124.507 Y128.566 E-.01378
G1 X124.482 Y128.562 E-.00585
G1 X124.024 Y128.366 E-.11503
G1 X123.632 Y128.057 E-.11525
G1 X123.333 Y127.657 E-.11531
G1 X123.162 Y127.229 E-.10642
G1 X123.09 Y126.752 E-.11139
G1 X123.148 Y126.253 E-.116
G1 X123.314 Y125.848 E-.10097
;WIPE_END
G1 Z.6 F720
G1 X83.287 Y133.788 F10800
G1 Z.2 F720
G1 E.8 F2100
M204 S800
;TYPE:Perimeter
G1 F1200
G1 X83.287 Y77.362 E1.76919
G1 X166.713 Y77.362 E2.61576
G1 X166.713 Y133.788 E1.76919
G1 X83.347 Y133.788 E2.61388
M204 S1000
G1 X82.91 Y134.165 F10800
M204 S800
;TYPE:External perimeter
G1 F1200
G1 X82.91 Y76.985 E1.79284
G1 X167.09 Y76.985 E2.6394
G1 X167.09 Y134.165 E1.79284
G1 X82.97 Y134.165 E2.63752
M204 S1000
;WIPE_START
G1 F8640
G1 X82.91 Y134.165 E-.01385
G1 X82.91 Y130.76 E-.78615
;WIPE_END
G1 Z.6 F720
G1 X165.799 Y77.513 F10800
G1 Z.2 F720
G1 E.8 F2100
M204 S800
;TYPE:Solid infill
;WIDTH:0.420378
G1 F1200
G1 X166.392 Y78.106 E.02632
G1 X166.392 Y78.64 E.01676
G1 X165.435 Y77.682 E.0425
G1 X164.901 Y77.682 E.01676
G1 X166.392 Y79.174 E.0662
G1 X166.392 Y79.708 E.01676
G1 X164.367 Y77.682 E.0899
G1 X163.833 Y77.682 E.01676
G1 X166.392 Y80.241 E.11358
G1 X166.392 Y80.775 E.01676
G1 X163.3 Y77.682 E.13726
G1 X162.766 Y77.682 E.01676
G1 X166.392 Y81.309 E.16097
G1 X166.392 Y81.843 E.01676
M73 P0 R146
G1 X162.232 Y77.682 E.18467
G1 X161.698 Y77.682 E.01676
G1 X166.392 Y82.377 E.20837
G1 X166.392 Y82.91 E.01673
G1 X161.164 Y77.682 E.23205
G1 X160.631 Y77.682 E.01673
G1 X166.392 Y83.444 E.25573
G1 X166.392 Y83.978 E.01676
G1 X160.097 Y77.682 E.27943
G1 X159.563 Y77.682 E.01676
G1 X166.392 Y84.512 E.30314
G1 X166.392 Y85.046 E.01676
G1 X159.029 Y77.682 E.32684
G1 X158.495 Y77.682 E.01676
G1 X166.392 Y85.579 E.35052
G1 X166.392 Y86.113 E.01676
G1 X157.962 Y77.682 E.3742
G1 X157.428 Y77.682 E.01676
G1 X166.392 Y86.647 E.3979
G1 X166.392 Y87.181 E.01676
G1 X156.894 Y77.682 E.4216
G1 X156.36 Y77.682 E.01676
G1 X166.392 Y87.715 E.4453
G1 X166.392 Y88.248 E.01673
G1 X155.826 Y77.682 E.46898
G1 X155.293 Y77.682 E.01673
G1 X166.392 Y88.782 E.49266
G1 X166.392 Y89.316 E.01676
G1 X154.759 Y77.682 E.51637
G1 X154.225 Y77.682 E.01676
G1 X166.392 Y89.85 E.54007
G1 X166.392 Y90.384 E.01676
G1 X153.691 Y77.682 E.56377
G1 X153.157 Y77.682 E.01676
G1 X166.392 Y90.917 E.58745
G1 X166.392 Y91.451 E.01676
G1 X152.624 Y77.682 E.61113
G1 X152.09 Y77.682 E.01676
G1 X166.392 Y91.985 E.63483
G1 X166.392 Y92.519 E.01676
G1 X151.556 Y77.682 E.65854
G1 X151.022 Y77.682 E.01676
G1 X166.392 Y93.053 E.68224
G1 X166.392 Y93.587 E.01676
G1 X150.488 Y77.682 E.70594
G1 X149.955 Y77.682 E.01673
M73 Q0 S151
G1 X166.392 Y94.12 E.7296
G1 X166.392 Y94.654 E.01676
G1 X149.421 Y77.682 E.7533
G1 X148.887 Y77.682 E.01676
G1 X166.392 Y95.188 E.777
G1 X166.392 Y95.722 E.01676
G1 X148.353 Y77.682 E.8007
G1 X147.819 Y77.682 E.01676
G1 X166.392 Y96.256 E.82441
G1 X166.392 Y96.789 E.01673
G1 X147.285 Y77.682 E.84809
G1 X146.752 Y77.682 E.01673
G1 X166.392 Y97.323 E.87177
G1 X166.392 Y97.857 E.01676
G1 X146.218 Y77.682 E.89547
G1 X145.684 Y77.682 E.01676
G1 X166.392 Y98.391 E.91917
G1 X166.392 Y98.925 E.01676
G1 X145.15 Y77.682 E.94287
G1 X144.616 Y77.682 E.01676
G1 X166.392 Y99.458 E.96655
G1 X166.392 Y99.992 E.01676
G1 X144.083 Y77.682 E.99023
G1 X143.549 Y77.682 E.01676
M73 P1 R146
G1 X166.392 Y100.526 E1.01394
G1 X166.392 Y101.06 E.01676
M73 Q1 S151
G1 X143.015 Y77.682 E1.03764
G1 X142.481 Y77.682 E.01676
G1 X166.392 Y101.594 E1.06134
G1 X166.392 Y102.127 E.01673
G1 X141.947 Y77.682 E1.08502
G1 X141.414 Y77.682 E.01673
G1 X166.392 Y102.661 E1.1087
G1 X166.392 Y103.195 E.01676
G1 X140.88 Y77.682 E1.1324
G1 X140.346 Y77.682 E.01676
G1 X166.392 Y103.729 E1.1561
G1 X166.392 Y104.263 E.01676
G1 X139.812 Y77.682 E1.17981
G1 X139.278 Y77.682 E.01676
G1 X166.392 Y104.796 E1.20349
G1 X166.392 Y105.33 E.01676
G1 X138.745 Y77.682 E1.22717
G1 X138.211 Y77.682 E.01676
G1 X166.392 Y105.864 E1.25087
G1 X166.392 Y106.398 E.01676
G1 X137.677 Y77.682 E1.27457
G1 X137.143 Y77.682 E.01676
G1 X166.392 Y106.932 E1.29827
G1 X166.392 Y107.465 E.01673
G1 X136.609 Y77.682 E1.32195
G1 X136.076 Y77.682 E.01673
M73 P1 R145
G1 X166.392 Y107.999 E1.34563
G1 X166.392 Y108.533 E.01676
G1 X135.542 Y77.682 E1.36934
G1 X135.008 Y77.682 E.01676
G1 X166.392 Y109.067 E1.39304
G1 X166.392 Y109.601 E.01676
G1 X134.474 Y77.682 E1.41674
G1 X133.94 Y77.682 E.01676
G1 X166.392 Y110.135 E1.44044
G1 X166.392 Y110.668 E.01673
G1 X133.407 Y77.682 E1.4641
G1 X132.873 Y77.682 E.01676
G1 X166.392 Y111.202 E1.4878
G1 X166.392 Y111.736 E.01676
G1 X132.339 Y77.682 E1.5115
M73 Q1 S150
G1 X131.805 Y77.682 E.01676
G1 X166.392 Y112.27 E1.53521
G1 X166.392 Y112.804 E.01676
G1 X131.271 Y77.682 E1.55891
G1 X130.737 Y77.682 E.01676
G1 X166.392 Y113.337 E1.58259
G1 X166.392 Y113.871 E.01676
G1 X130.204 Y77.682 E1.60627
G1 X129.67 Y77.682 E.01676
G1 X166.392 Y114.405 E1.62997
G1 X166.392 Y114.939 E.01676
G1 X129.136 Y77.682 E1.65367
G1 X128.602 Y77.682 E.01676
G1 X166.392 Y115.473 E1.67738
G1 X166.392 Y116.006 E.01673
G1 X128.068 Y77.682 E1.70106
G1 X127.535 Y77.682 E.01673
G1 X166.392 Y116.54 E1.72474
G1 X166.392 Y117.074 E.01676
G1 X127.001 Y77.682 E1.74844
G1 X126.467 Y77.682 E.01676
G1 X166.392 Y117.608 E1.77214
G1 X166.392 Y118.142 E.01676
G1 X125.933 Y77.682 E1.79584
G1 X125.399 Y77.682 E.01676
G1 X166.392 Y118.675 E1.81952
G1 X166.392 Y119.209 E.01676
G1 X124.866 Y77.682 E1.8432
G1 X124.332 Y77.682 E.01676
G1 X166.392 Y119.743 E1.8669
G1 X166.392 Y120.277 E.01676
M73 P1 R144
G1 X123.798 Y77.682 E1.89061
G1 X123.264 Y77.682 E.01676
M73 P2 R144
G1 X166.392 Y120.811 E1.91431
G1 X166.392 Y121.344 E.01673
G1 X122.73 Y77.682 E1.93799
G1 X122.197 Y77.682 E.01673
M73 Q2 S150
G1 X166.392 Y121.878 E1.96167
G1 X166.392 Y122.412 E.01676
G1 X121.663 Y77.682 E1.98537
G1 X121.129 Y77.682 E.01676
G1 X166.392 Y122.946 E2.00907
G1 X166.392 Y123.48 E.01676
M73 Q2 S149
G1 X120.595 Y77.682 E2.03278
G1 X120.061 Y77.682 E.01676
G1 X166.392 Y124.013 E2.05646
G1 X166.392 Y124.547 E.01676
G1 X119.528 Y77.682 E2.08014
G1 X118.994 Y77.682 E.01676
G1 X166.392 Y125.081 E2.10384
G1 X166.392 Y125.615 E.01676
G1 X118.46 Y77.682 E2.12754
G1 X117.926 Y77.682 E.01676
G1 X166.392 Y126.149 E2.15124
G1 X166.392 Y126.683 E.01676
G1 X117.392 Y77.682 E2.17494
G1 X116.859 Y77.682 E.01673
G1 X166.392 Y127.216 E2.1986
G1 X166.392 Y127.75 E.01676
G1 X116.325 Y77.682 E2.2223
G1 X115.791 Y77.682 E.01676
G1 X166.392 Y128.284 E2.24601
G1 X166.392 Y128.818 E.01676
G1 X115.257 Y77.682 E2.26971
G1 X114.723 Y77.682 E.01676
G1 X166.392 Y129.352 E2.29341
G1 X166.392 Y129.885 E.01673
M73 P2 R143
G1 X114.19 Y77.682 E2.31707
G1 X113.656 Y77.682 E.01676
G1 X166.392 Y130.419 E2.34077
G1 X166.392 Y130.953 E.01676
G1 X113.122 Y77.682 E2.36447
G1 X112.588 Y77.682 E.01676
G1 X166.392 Y131.487 E2.38818
G1 X166.392 Y132.021 E.01676
G1 X112.054 Y77.682 E2.41188
G1 X111.52 Y77.682 E.01676
M73 Q2 S148
G1 X166.392 Y132.554 E2.43556
G1 X166.392 Y133.088 E.01676
G1 X110.987 Y77.682 E2.45924
G1 X110.453 Y77.682 E.01676
G1 X166.238 Y133.467 E2.47608
G1 X165.704 Y133.467 E.01676
M73 P3 R143
G1 X109.919 Y77.682 E2.47608
G1 X109.385 Y77.682 E.01676
G1 X165.17 Y133.467 E2.47608
G1 X164.636 Y133.467 E.01676
M73 Q3 S148
G1 X108.851 Y77.682 E2.47608
G1 X108.318 Y77.682 E.01673
G1 X164.102 Y133.467 E2.47606
G1 X163.569 Y133.467 E.01673
G1 X107.784 Y77.682 E2.47608
G1 X107.25 Y77.682 E.01676
G1 X163.035 Y133.467 E2.47608
G1 X162.501 Y133.467 E.01676
G1 X106.716 Y77.682 E2.47608
G1 X106.182 Y77.682 E.01676
M73 P3 R142
G1 X161.967 Y133.467 E2.47608
G1 X161.433 Y133.467 E.01676
G1 X105.649 Y77.682 E2.47606
G1 X105.115 Y77.682 E.01676
G1 X160.9 Y133.467 E2.47608
G1 X160.366 Y133.467 E.01676
G1 X104.581 Y77.682 E2.47608
G1 X104.047 Y77.682 E.01676
G1 X159.832 Y133.467 E2.47608
G1 X159.298 Y133.467 E.01676
M73 Q3 S147
G1 X103.513 Y77.682 E2.47608
G1 X102.98 Y77.682 E.01673
G1 X158.764 Y133.467 E2.47606
G1 X158.231 Y133.467 E.01673
G1 X102.446 Y77.682 E2.47608
G1 X101.912 Y77.682 E.01676
G1 X157.697 Y133.467 E2.47608
G1 X157.163 Y133.467 E.01676
G1 X101.378 Y77.682 E2.47608
G1 X100.844 Y77.682 E.01676
G1 X156.629 Y133.467 E2.47608
G1 X156.095 Y133.467 E.01676
G1 X100.311 Y77.682 E2.47606
G1 X99.777 Y77.682 E.01676
G1 X155.562 Y133.467 E2.47608
G1 X155.028 Y133.467 E.01676
G1 X99.243 Y77.682 E2.47608
G1 X98.709 Y77.682 E.01676
G1 X154.494 Y133.467 E2.47608
G1 X153.96 Y133.467 E.01676
M73 P4 R142
G1 X98.175 Y77.682 E2.47608
G1 X97.642 Y77.682 E.01673
M73 P4 R141
G1 X153.426 Y133.467 E2.47606
G1 X152.893 Y133.467 E.01673
G1 X97.108 Y77.682 E2.47608
G1 X96.574 Y77.682 E.01676
M73 Q4 S147
G1 X152.359 Y133.467 E2.47608
G1 X151.825 Y133.467 E.01676
G1 X96.04 Y77.682 E2.47608
G1 X95.506 Y77.682 E.01676
M73 Q4 S146
G1 X151.291 Y133.467 E2.47608
G1 X150.757 Y133.467 E.01676
G1 X94.972 Y77.682 E2.47608
G1 X94.439 Y77.682 E.01673
G1 X150.223 Y133.467 E2.47606
G1 X149.69 Y133.467 E.01673
G1 X93.905 Y77.682 E2.47608
G1 X93.371 Y77.682 E.01676
G1 X149.156 Y133.467 E2.47608
G1 X148.622 Y133.467 E.01676
G1 X92.837 Y77.682 E2.47608
G1 X92.303 Y77.682 E.01676
G1 X148.088 Y133.467 E2.47608
G1 X147.554 Y133.467 E.01676
G1 X91.77 Y77.682 E2.47606
G1 X91.236 Y77.682 E.01676
G1 X147.021 Y133.467 E2.47608
G1 X146.487 Y133.467 E.01676
G1 X90.702 Y77.682 E2.47608
G1 X90.168 Y77.682 E.01676
G1 X145.953 Y133.467 E2.47608
G1 X145.419 Y133.467 E.01676
M73 P4 R140
G1 X89.634 Y77.682 E2.47608
G1 X89.101 Y77.682 E.01673
G1 X144.885 Y133.467 E2.47606
G1 X144.352 Y133.467 E.01673
G1 X88.567 Y77.682 E2.47608
G1 X88.033 Y77.682 E.01676
G1 X143.818 Y133.467 E2.47608
G1 X143.284 Y133.467 E.01676
M73 Q4 S145
G1 X87.499 Y77.682 E2.47608
G1 X86.965 Y77.682 E.01676
G1 X142.75 Y133.467 E2.47608
G1 X142.216 Y133.467 E.01676
G1 X86.432 Y77.682 E2.47606
G1 X85.898 Y77.682 E.01676
M73 P5 R140
G1 X141.683 Y133.467 E2.47608
G1 X141.149 Y133.467 E.01676
G1 X85.364 Y77.682 E2.47608
G1 X84.83 Y77.682 E.01676
G1 X140.615 Y133.467 E2.47608
G1 X140.081 Y133.467 E.01676
M73 Q5 S145
G1 X84.296 Y77.682 E2.47608
G1 X83.763 Y77.682 E.01673
G1 X139.547 Y133.467 E2.47606
G1 X139.014 Y133.467 E.01673
G1 X83.608 Y78.061 E2.45926
G1 X83.608 Y78.595 E.01676
G1 X138.48 Y133.467 E2.43556
G1 X137.946 Y133.467 E.01676
G1 X83.608 Y79.129 E2.41186
G1 X83.608 Y79.663 E.01676
M73 P5 R139
G1 X137.412 Y133.467 E2.38815
G1 X136.878 Y133.467 E.01676
G1 X83.608 Y80.197 E2.36445
G1 X83.608 Y80.73 E.01673
G1 X136.345 Y133.467 E2.34079
G1 X135.811 Y133.467 E.01676
G1 X83.608 Y81.264 E2.31709
G1 X83.608 Y81.798 E.01676
M73 Q5 S144
G1 X135.277 Y133.467 E2.29339
G1 X134.743 Y133.467 E.01676
G1 X127.553 Y126.277 E.31914
G1 X127.61 Y126.683 E.01287
G1 X127.591 Y126.849 E.00524
G1 X134.209 Y133.467 E.29375
G1 X133.675 Y133.467 E.01676
G1 X127.534 Y127.325 E.2726
G1 X127.487 Y127.501 E.00572
G1 X127.395 Y127.721 E.00748
G1 X133.142 Y133.467 E.25507
G1 X132.608 Y133.467 E.01676
G1 X127.222 Y128.081 E.23906
G1 X126.994 Y128.387 E.01198
G1 X132.074 Y133.467 E.22548
G1 X131.54 Y133.467 E.01676
G1 X126.736 Y128.663 E.21323
G1 X126.433 Y128.894 E.01196
G1 X131.006 Y133.467 E.20298
G1 X130.473 Y133.467 E.01673
G1 X126.087 Y129.082 E.19466
G1 X125.703 Y129.232 E.01294
G1 X129.939 Y133.467 E.188
G1 X129.405 Y133.467 E.01676
G1 X125.242 Y129.305 E.18476
G1 X125 Y129.334 E.00765
G1 X124.702 Y129.298 E.00942
G1 X129.041 Y133.637 E.19259
M204 S1000
;WIPE_START
G1 F8640
G1 X126.591 Y131.187 E-.8
;WIPE_END
G1 Z.6 F720
G1 X125.655 Y124.379 F10800
G1 Z.2 F720
G1 E.8 F2100
M204 S800
G1 F1200
G1 X83.608 Y82.332 E1.86631
G1 X83.608 Y82.866 E.01676
G1 X124.87 Y124.128 E1.83146
G1 X124.4 Y124.192 E.01489
G1 X83.608 Y83.399 E1.81062
G1 X83.608 Y83.933 E.01676
G1 X124.005 Y124.33 E1.79307
G1 X123.793 Y124.415 E.00717
G1 X123.641 Y124.5 E.00547
G1 X83.608 Y84.467 E1.77691
G1 X83.608 Y85.001 E.01676
G1 X123.34 Y124.734 E1.76357
G1 X123.139 Y124.893 E.00804
G1 X123.065 Y124.992 E.00388
G1 X83.608 Y85.535 E1.75135
G1 X83.608 Y86.068 E.01673
G1 X122.837 Y125.298 E1.74125
