; generated by PrusaSlicer 2.9.4 on 2026-04-27 at 22:07:14 UTC


;
;
; 

; external perimeters extrusion width = 0.45mm
; perimeters extrusion width = 0.45mm
; infill extrusion width = 0.45mm
; solid infill extrusion width = 0.45mm
; top infill extrusion width = 0.40mm
; support material extrusion width = 0.35mm
; first layer extrusion width = 0.42mm

M73 P0 R466
M73 Q0 S476
M201 X1000 Y1000 Z200 E5000 ; sets maximum accelerations, mm/sec^2
M203 X200 Y200 Z12 E120 ; sets maximum feedrates, mm / sec
M204 S1250 T1250 ; sets acceleration (S) and retract acceleration (R), mm/sec^2
M205 X8.00 Y8.00 Z0.40 E4.50 ; sets the jerk limits, mm/sec
M205 S0 T0 ; sets the minimum extruding and travel feed rate, mm/sec

; printing object Stovetop_Monitor_Bracket.stl id:0 copy 0
; stop printing object Stovetop_Monitor_Bracket.stl id:0 copy 0

;TYPE:Custom
M862.3 P "MK3S" ; printer model check
M862.1 P0.4 ; nozzle diameter check
M115 U3.14.1 ; tell printer latest fw version
G90 ; use absolute coordinates
M83 ; extruder relative mode
M104 S215 ; set extruder temp
M140 S60 ; set bed temp
M190 S60 ; wait for bed temp
M109 S215 ; wait for extruder temp
G28 W ; home all without mesh bed level
G80 X73.5379 Y48.9237 W102.924 H109.209 ; mesh bed levelling

G1 Z0.2 F720
G1 Y-3 F1000 ; go outside print area
G92 E0
G1 X60 E9 F1000 ; intro line
G1 X100 E12.5 F1000 ; intro line

G92 E0
M221 S95

; Don't change E values below. Excessive value can damage the printer.

M907 E538 ; set extruder motor current
G21 ; set units to millimeters
G90 ; use absolute coordinates
M83 ; use relative distances for extrusion

M900 K0.05 ; Filament gcode LA 1.5
M900 K30 ; Filament gcode LA 1.0




M107
;LAYER_CHANGE
;Z:0.2
;HEIGHT:0.2
G1 E-.8 F2100
G1 Z.6 F720
G1 X74.367 Y54.367 F10800
G1 Z.2 F720
G1 E.8 F2100
M204 S800
;TYPE:Skirt/Brim
;WIDTH:0.42
G1 F1200
G1 X78.982 Y49.753 E.20461
G1 X80.529 Y49.112 E.0525
G1 X169.471 Y49.112 E2.78871
G1 X171.018 Y49.753 E.0525
G1 X175.633 Y54.367 E.20461
G1 X176.274 Y55.915 E.05253
G1 X176.274 Y144.857 E2.78871
G1 X176.198 Y145.427 E.01803
M73 Q0 S475
G1 X173.254 Y156.326 E.35398
G1 X172.552 Y157.43 E.04102
G1 X171.142 Y157.944 E.04706
G1 X78.858 Y157.944 E2.8935
G1 X77.61 Y157.553 E.04101
G1 X76.746 Y156.326 E.04705
G1 X73.802 Y145.427 E.35398
G1 X73.726 Y144.857 E.01803
G1 X73.726 Y55.915 E2.78871
G1 X74.344 Y54.423 E.05063
M204 S1000
;WIPE_START
G1 F8640
G1 X74.367 Y54.367 E-.01398
G1 X76.774 Y51.96 E-.78602
;WIPE_END
G1 Z.6 F720
; printing object Stovetop_Monitor_Bracket.stl id:0 copy 0
G1 X170.791 Y155.756 F10800
G1 Z.2 F720
G1 E.8 F2100
M204 S800
;TYPE:Support material interface
;WIDTH:0.35
G1 F1200
G1 X171.142 Y155.756 E.00896
G1 X171.142 Y144.22 E.29456
G1 X170.637 Y144.22 E.01289
G1 X170.637 Y155.756 E.29456
G1 X170.13 Y155.756 E.01295
G1 X170.13 Y145.782 E.25467
G1 X169.623 Y145.782 E.01295
G1 X169.623 Y155.756 E.25467
G1 X169.116 Y155.756 E.01295
G1 X169.116 Y145.782 E.25467
G1 X168.609 Y145.782 E.01295
G1 X168.609 Y155.756 E.25467
G1 X168.102 Y155.756 E.01295
G1 X168.102 Y145.782 E.25467
G1 X167.595 Y145.782 E.01295
G1 X167.595 Y155.756 E.25467
G1 X167.088 Y155.756 E.01295
G1 X167.088 Y145.782 E.25467
G1 X166.58 Y145.782 E.01297
G1 X166.58 Y155.756 E.25467
G1 X166.073 Y155.756 E.01295
G1 X166.073 Y145.782 E.25467
G1 X165.566 Y145.782 E.01295
G1 X165.566 Y155.756 E.25467
G1 X165.059 Y155.756 E.01295
G1 X165.059 Y145.782 E.25467
G1 X164.798 Y145.755 E.0067
M204 S1000
;WIPE_START
G1 F8640
G1 X165.059 Y145.782 E-.06059
G1 X165.059 Y148.984 E-.73941
;WIPE_END
G1 Z.6 F720
G1 X164.552 Y144.22 F10800
G1 Z.2 F720
G1 E.8 F2100
M204 S800
G1 F1200
G1 X164.552 Y155.756 E.29456
G1 X164.045 Y155.756 E.01295
G1 X164.045 Y148.834 E.17674
G1 X163.538 Y148.834 E.01295
G1 X163.538 Y155.756 E.17674
G1 X163.031 Y155.756 E.01295
G1 X163.031 Y148.834 E.17674
G1 X162.524 Y148.834 E.01295
G1 X162.524 Y155.756 E.17674
G1 X162.017 Y155.756 E.01295
G1 X162.017 Y148.834 E.17674
G1 X161.51 Y148.834 E.01295
G1 X161.51 Y155.756 E.17674
G1 X161.003 Y155.756 E.01295
G1 X161.003 Y148.834 E.17674
G1 X160.496 Y148.834 E.01295
G1 X160.496 Y155.756 E.17674
G1 X159.988 Y155.756 E.01297
G1 X159.988 Y148.834 E.17674
G1 X159.481 Y148.834 E.01295
G1 X159.481 Y155.756 E.17674
G1 X158.974 Y155.756 E.01295
G1 X158.974 Y148.834 E.17674
G1 X158.467 Y148.834 E.01295
G1 X158.467 Y155.756 E.17674
G1 X157.96 Y155.756 E.01295
G1 X157.96 Y148.834 E.17674
G1 X157.453 Y148.834 E.01295
G1 X157.453 Y155.756 E.17674
G1 X156.946 Y155.756 E.01295
G1 X156.946 Y148.834 E.17674
G1 X156.439 Y148.834 E.01295
G1 X156.439 Y155.756 E.17674
G1 X155.932 Y155.756 E.01295
G1 X155.932 Y148.834 E.17674
G1 X155.425 Y148.834 E.01295
G1 X155.425 Y155.756 E.17674
G1 X154.918 Y155.756 E.01295
G1 X154.918 Y148.834 E.17674
G1 X154.411 Y148.834 E.01295
G1 X154.411 Y155.756 E.17674
G1 X153.903 Y155.756 E.01297
G1 X153.903 Y148.834 E.17674
G1 X153.396 Y148.834 E.01295
G1 X153.396 Y155.756 E.17674
G1 X152.889 Y155.756 E.01295
G1 X152.889 Y148.834 E.17674
G1 X152.382 Y148.834 E.01295
G1 X152.382 Y155.756 E.17674
G1 X151.875 Y155.756 E.01295
G1 X151.875 Y148.834 E.17674
G1 X151.368 Y148.834 E.01295
G1 X151.368 Y155.756 E.17674
G1 X150.861 Y155.756 E.01295
G1 X150.861 Y148.834 E.17674
G1 X150.354 Y148.834 E.01295
G1 X150.354 Y155.756 E.17674
G1 X149.847 Y155.756 E.01295
G1 X149.847 Y148.834 E.17674
G1 X149.34 Y148.834 E.01295
G1 X149.34 Y155.756 E.17674
G1 X148.833 Y155.756 E.01295
G1 X148.833 Y148.834 E.17674
G1 X148.326 Y148.834 E.01295
G1 X148.326 Y155.756 E.17674
G1 X147.819 Y155.756 E.01295
G1 X147.819 Y148.834 E.17674
G1 X147.311 Y148.834 E.01297
G1 X147.311 Y155.756 E.17674
G1 X146.804 Y155.756 E.01295
G1 X146.804 Y148.834 E.17674
G1 X146.297 Y148.834 E.01295
G1 X146.297 Y155.756 E.17674
G1 X145.79 Y155.756 E.01295
G1 X145.79 Y148.834 E.17674
G1 X145.283 Y148.834 E.01295
G1 X145.283 Y155.756 E.17674
G1 X144.776 Y155.756 E.01295
G1 X144.776 Y148.834 E.17674
G1 X144.269 Y148.834 E.01295
G1 X144.269 Y155.756 E.17674
G1 X143.762 Y155.756 E.01295
G1 X143.762 Y148.834 E.17674
G1 X143.255 Y148.834 E.01295
G1 X143.255 Y155.756 E.17674
G1 X142.748 Y155.756 E.01295
G1 X142.748 Y148.834 E.17674
G1 X142.241 Y148.834 E.01295
G1 X142.241 Y155.756 E.17674
G1 X141.734 Y155.756 E.01295
G1 X141.734 Y148.834 E.17674
G1 X141.227 Y148.834 E.01295
G1 X141.227 Y155.756 E.17674
G1 X140.719 Y155.756 E.01297
G1 X140.719 Y148.834 E.17674
G1 X140.212 Y148.834 E.01295
G1 X140.212 Y155.756 E.17674
G1 X139.705 Y155.756 E.01295
G1 X139.705 Y148.834 E.17674
G1 X139.198 Y148.834 E.01295
G1 X139.198 Y155.756 E.17674
G1 X138.691 Y155.756 E.01295
G1 X138.691 Y148.834 E.17674
G1 X138.184 Y148.834 E.01295
G1 X138.184 Y155.756 E.17674
G1 X137.677 Y155.756 E.01295
G1 X137.677 Y148.834 E.17674
G1 X137.17 Y148.834 E.01295
G1 X137.17 Y155.756 E.17674
G1 X136.663 Y155.756 E.01295
G1 X136.663 Y148.834 E.17674
G1 X136.156 Y148.834 E.01295
G1 X136.156 Y155.756 E.17674
G1 X135.649 Y155.756 E.01295
G1 X135.649 Y148.834 E.17674
G1 X135.142 Y148.834 E.01295
M73 P0 R465
G1 X135.142 Y155.756 E.17674
G1 X134.634 Y155.756 E.01297
G1 X134.634 Y148.834 E.17674
G1 X134.127 Y148.834 E.01295
G1 X134.127 Y155.756 E.17674
G1 X133.62 Y155.756 E.01295
G1 X133.62 Y148.834 E.17674
G1 X133.113 Y148.834 E.01295
G1 X133.113 Y155.756 E.17674
G1 X132.606 Y155.756 E.01295
G1 X132.606 Y148.834 E.17674
G1 X132.099 Y148.834 E.01295
G1 X132.099 Y155.756 E.17674
G1 X131.592 Y155.756 E.01295
G1 X131.592 Y148.834 E.17674
G1 X131.085 Y148.834 E.01295
G1 X131.085 Y155.756 E.17674
G1 X130.578 Y155.756 E.01295
G1 X130.578 Y148.834 E.17674
G1 X130.071 Y148.834 E.01295
G1 X130.071 Y155.756 E.17674
G1 X129.564 Y155.756 E.01295
G1 X129.564 Y148.834 E.17674
G1 X129.057 Y148.834 E.01295
G1 X129.057 Y155.756 E.17674
G1 X128.55 Y155.756 E.01295
G1 X128.55 Y148.834 E.17674
G1 X128.042 Y148.834 E.01297
G1 X128.042 Y155.756 E.17674
G1 X127.535 Y155.756 E.01295
G1 X127.535 Y148.834 E.17674
G1 X127.028 Y148.834 E.01295
G1 X127.028 Y155.756 E.17674
G1 X126.521 Y155.756 E.01295
G1 X126.521 Y148.834 E.17674
G1 X126.014 Y148.834 E.01295
G1 X126.014 Y155.756 E.17674
G1 X125.507 Y155.756 E.01295
G1 X125.507 Y148.834 E.17674
G1 X125 Y148.834 E.01295
G1 X125 Y155.756 E.17674
G1 X124.493 Y155.756 E.01295
G1 X124.493 Y148.834 E.17674
G1 X123.986 Y148.834 E.01295
G1 X123.986 Y155.756 E.17674
G1 X123.479 Y155.756 E.01295
G1 X123.479 Y148.834 E.17674
G1 X122.972 Y148.834 E.01295
G1 X122.972 Y155.756 E.17674
G1 X122.465 Y155.756 E.01295
G1 X122.465 Y148.834 E.17674
G1 X121.958 Y148.834 E.01295
G1 X121.958 Y155.756 E.17674
G1 X121.45 Y155.756 E.01297
G1 X121.45 Y148.834 E.17674
G1 X120.943 Y148.834 E.01295
G1 X120.943 Y155.756 E.17674
G1 X120.436 Y155.756 E.01295
G1 X120.436 Y148.834 E.17674
G1 X119.929 Y148.834 E.01295
G1 X119.929 Y155.756 E.17674
G1 X119.422 Y155.756 E.01295
G1 X119.422 Y148.834 E.17674
G1 X118.915 Y148.834 E.01295
G1 X118.915 Y155.756 E.17674
G1 X118.408 Y155.756 E.01295
G1 X118.408 Y148.834 E.17674
G1 X117.901 Y148.834 E.01295
G1 X117.901 Y155.756 E.17674
G1 X117.394 Y155.756 E.01295
G1 X117.394 Y148.834 E.17674
G1 X116.887 Y148.834 E.01295
G1 X116.887 Y155.756 E.17674
G1 X116.38 Y155.756 E.01295
G1 X116.38 Y148.834 E.17674
G1 X115.873 Y148.834 E.01295
G1 X115.873 Y155.756 E.17674
G1 X115.365 Y155.756 E.01297
G1 X115.365 Y148.834 E.17674
G1 X114.858 Y148.834 E.01295
M73 Q0 S474
G1 X114.858 Y155.756 E.17674
G1 X114.351 Y155.756 E.01295
G1 X114.351 Y148.834 E.17674
G1 X113.844 Y148.834 E.01295
G1 X113.844 Y155.756 E.17674
G1 X113.337 Y155.756 E.01295
G1 X113.337 Y148.834 E.17674
G1 X112.83 Y148.834 E.01295
G1 X112.83 Y155.756 E.17674
G1 X112.323 Y155.756 E.01295
G1 X112.323 Y148.834 E.17674
G1 X111.816 Y148.834 E.01295
G1 X111.816 Y155.756 E.17674
G1 X111.309 Y155.756 E.01295
G1 X111.309 Y148.834 E.17674
G1 X110.802 Y148.834 E.01295
G1 X110.802 Y155.756 E.17674
G1 X110.295 Y155.756 E.01295
G1 X110.295 Y148.834 E.17674
G1 X109.788 Y148.834 E.01295
G1 X109.788 Y155.756 E.17674
G1 X109.281 Y155.756 E.01295
G1 X109.281 Y148.834 E.17674
G1 X108.773 Y148.834 E.01297
G1 X108.773 Y155.756 E.17674
G1 X108.266 Y155.756 E.01295
G1 X108.266 Y148.834 E.17674
G1 X107.759 Y148.834 E.01295
G1 X107.759 Y155.756 E.17674
G1 X107.252 Y155.756 E.01295
G1 X107.252 Y148.834 E.17674
G1 X106.745 Y148.834 E.01295
G1 X106.745 Y155.756 E.17674
G1 X106.238 Y155.756 E.01295
G1 X106.238 Y148.834 E.17674
G1 X105.731 Y148.834 E.01295
G1 X105.731 Y155.756 E.17674
G1 X105.224 Y155.756 E.01295
G1 X105.224 Y148.834 E.17674
G1 X104.717 Y148.834 E.01295
G1 X104.717 Y155.756 E.17674
G1 X104.21 Y155.756 E.01295
G1 X104.21 Y148.834 E.17674
G1 X103.703 Y148.834 E.01295
G1 X103.703 Y155.756 E.17674
G1 X103.196 Y155.756 E.01295
G1 X103.196 Y148.834 E.17674
G1 X102.689 Y148.834 E.01295
G1 X102.689 Y155.756 E.17674
G1 X102.181 Y155.756 E.01297
G1 X102.181 Y148.834 E.17674
G1 X101.674 Y148.834 E.01295
G1 X101.674 Y155.756 E.17674
G1 X101.167 Y155.756 E.01295
G1 X101.167 Y148.834 E.17674
G1 X100.66 Y148.834 E.01295
G1 X100.66 Y155.756 E.17674
G1 X100.153 Y155.756 E.01295
G1 X100.153 Y148.834 E.17674
G1 X99.646 Y148.834 E.01295
G1 X99.646 Y155.756 E.17674
G1 X99.139 Y155.756 E.01295
G1 X99.139 Y148.834 E.17674
G1 X98.632 Y148.834 E.01295
G1 X98.632 Y155.756 E.17674
G1 X98.125 Y155.756 E.01295
G1 X98.125 Y148.834 E.17674
G1 X97.618 Y148.834 E.01295
G1 X97.618 Y155.756 E.17674
G1 X97.111 Y155.756 E.01295
G1 X97.111 Y148.834 E.17674
G1 X96.604 Y148.834 E.01295
G1 X96.604 Y155.756 E.17674
G1 X96.096 Y155.756 E.01297
G1 X96.096 Y148.834 E.17674
G1 X95.589 Y148.834 E.01295
G1 X95.589 Y155.756 E.17674
G1 X95.082 Y155.756 E.01295
G1 X95.082 Y148.834 E.17674
G1 X94.575 Y148.834 E.01295
G1 X94.575 Y155.756 E.17674
G1 X94.068 Y155.756 E.01295
G1 X94.068 Y148.834 E.17674
G1 X93.561 Y148.834 E.01295
G1 X93.561 Y155.756 E.17674
G1 X93.054 Y155.756 E.01295
G1 X93.054 Y148.834 E.17674
G1 X92.547 Y148.834 E.01295
G1 X92.547 Y155.756 E.17674
G1 X92.04 Y155.756 E.01295
G1 X92.04 Y148.834 E.17674
G1 X91.533 Y148.834 E.01295
G1 X91.533 Y155.756 E.17674
G1 X91.026 Y155.756 E.01295
G1 X91.026 Y148.834 E.17674
G1 X90.519 Y148.834 E.01295
G1 X90.519 Y155.756 E.17674
G1 X90.012 Y155.756 E.01295
G1 X90.012 Y148.834 E.17674
G1 X89.504 Y148.834 E.01297
G1 X89.504 Y155.756 E.17674
G1 X88.997 Y155.756 E.01295
G1 X88.997 Y148.834 E.17674
G1 X88.49 Y148.834 E.01295
G1 X88.49 Y155.756 E.17674
G1 X87.983 Y155.756 E.01295
G1 X87.983 Y148.834 E.17674
G1 X87.476 Y148.834 E.01295
G1 X87.476 Y155.756 E.17674
G1 X86.969 Y155.756 E.01295
G1 X86.969 Y148.834 E.17674
G1 X86.462 Y148.834 E.01295
G1 X86.462 Y155.756 E.17674
G1 X85.955 Y155.756 E.01295
G1 X85.955 Y148.834 E.17674
G1 X85.78 Y148.834 E.00447
G1 X85.78 Y144.22 E.11781
G1 X85.448 Y144.22 E.00848
G1 X85.448 Y155.756 E.29456
G1 X84.941 Y155.756 E.01295
G1 X84.941 Y145.782 E.25467
G1 X84.434 Y145.782 E.01295
G1 X84.434 Y155.756 E.25467
G1 X83.927 Y155.756 E.01295
G1 X83.927 Y145.782 E.25467
G1 X83.42 Y145.782 E.01295
G1 X83.42 Y155.756 E.25467
G1 X82.912 Y155.756 E.01297
G1 X82.912 Y145.782 E.25467
G1 X82.405 Y145.782 E.01295
G1 X82.405 Y155.756 E.25467
G1 X81.898 Y155.756 E.01295
G1 X81.898 Y145.782 E.25467
G1 X81.391 Y145.782 E.01295
G1 X81.391 Y155.756 E.25467
G1 X80.884 Y155.756 E.01295
G1 X80.884 Y145.782 E.25467
G1 X80.513 Y145.782 E.00947
G1 X80.377 Y145.782 E.00347
G1 X80.377 Y155.756 E.25467
G1 X79.87 Y155.756 E.01295
G1 X79.87 Y145.782 E.25467
G1 X79.609 Y145.566 E.00865
M204 S1000
G1 X79.576 Y144.621 F10800
M204 S800
G1 F1200
G1 X79.576 Y144.22 E.01024
G1 X79.363 Y144.22 E.00544
G1 X79.363 Y155.756 E.29456
G1 X78.858 Y155.756 E.01289
G1 X78.858 Y144.22 E.29456
G1 X79.209 Y144.22 E.00896
M204 S1000
;WIPE_START
G1 F8640
G1 X78.858 Y144.22 E-.08105
G1 X78.858 Y147.334 E-.71895
;WIPE_END
G1 Z.6 F720
G1 X79.52 Y85.385 F10800
G1 Z.2 F720
G1 E.8 F2100
M204 S800
;TYPE:Support material
;WIDTH:0.42
G1 F1200
G1 X79.801 Y85.666 E.01246
G1 X85.199 Y85.666 E.16925
G1 X85.48 Y85.385 E.01246
G1 X85.48 Y60.58 E.77774
G1 X164.52 Y60.58 E2.47824
G1 X164.52 Y85.385 E.77774
G1 X164.801 Y85.666 E.01246
G1 X170.199 Y85.666 E.16925
G1 X170.48 Y85.385 E.01246
G1 X170.48 Y55.915 E.92401
G1 X174.085 Y55.915 E.11303
G1 X174.085 Y144.857 E2.78871
G1 X171.505 Y144.857 E.08089
M73 P0 R464
G1 X171.505 Y143.857 E.03135
G1 X170.06 Y143.857 E.04531
G1 X170.06 Y144.857 E.03135
G1 X167.52 Y144.857 E.07964
G1 X167.52 Y145.418 E.01759
G1 X164.975 Y145.418 E.0798
G1 X164.94 Y143.857 E.04896
G1 X163.857 Y143.857 E.03396
G1 X163.857 Y148.471 E.14467
G1 X86.143 Y148.471 E2.43667
G1 X86.143 Y143.857 E.14467
G1 X85.06 Y143.857 E.03396
G1 X85.025 Y145.418 E.04896
G1 X82.48 Y145.418 E.0798
G1 X82.48 Y144.857 E.01759
G1 X79.94 Y144.857 E.07964
G1 X79.94 Y143.857 E.03135
G1 X78.495 Y143.857 E.04531
G1 X78.495 Y144.857 E.03135
G1 X75.915 Y144.857 E.08089
G1 X75.915 Y55.915 E2.78871
G1 X79.52 Y55.915 E.11303
G1 X79.52 Y85.328 E.92222
M204 S1000
G1 X173.601 Y144.687 F10800
M204 S800
G1 F1200
G1 X173.601 Y56.254 E2.77275
G1 X173.182 Y56.254 E.01314
M73 Q0 S473
G1 X173.182 Y144.517 E2.76742
G1 X172.763 Y144.517 E.01314
G1 X172.763 Y56.254 E2.76742
G1 X172.344 Y56.254 E.01314
G1 X172.344 Y144.517 E2.76742
G1 X171.925 Y144.517 E.01314
G1 X171.925 Y56.254 E2.76742
G1 X171.506 Y56.254 E.01314
G1 X171.506 Y143.517 E2.73607
G1 X171.087 Y143.517 E.01314
G1 X171.087 Y56.254 E2.73607
G1 X170.819 Y56.254 E.0084
G1 X170.819 Y85.525 E.91777
G1 X170.668 Y85.676 E.0067
G1 X170.668 Y143.517 E1.81356
G1 X170.25 Y143.517 E.01311
G1 X170.25 Y86.005 E1.80325
G1 X169.831 Y86.005 E.01314
G1 X169.831 Y143.517 E1.80325
G1 X169.721 Y143.517 E.00345
G1 X169.721 Y144.517 E.03135
G1 X169.412 Y144.517 E.00969
G1 X169.412 Y86.005 E1.8346
G1 X168.993 Y86.005 E.01314
G1 X168.993 Y144.517 E1.8346
G1 X168.574 Y144.517 E.01314
M73 P0 R463
G1 X168.574 Y86.005 E1.8346
G1 X168.155 Y86.005 E.01314
G1 X168.155 Y144.517 E1.8346
G1 X167.736 Y144.517 E.01314
G1 X167.736 Y86.005 E1.8346
G1 X167.317 Y86.005 E.01314
G1 X167.317 Y144.517 E1.8346
G1 X167.181 Y144.517 E.00426
G1 X167.181 Y145.079 E.01762
G1 X166.898 Y145.079 E.00887
G1 X166.898 Y86.005 E1.85222
G1 X166.479 Y86.005 E.01314
